src/standard/sun.svg

<svg xmlns="http://www.w3.org/2000/svg" viewBox="0 0 36 36">
  <path d="M18 11.38A6.63 6.63 0 0 0 11.38 18c.31 8.77 12.94 8.77 13.25 0A6.64 6.64 0 0 0 18 11.38Zm0 12c-7.1-.23-7.1-10.53 0-10.76 7.1.23 7.1 10.53 0 10.76Zm0-14.45a.62.62 0 0 0 .62-.62V4a.62.62 0 0 0-1.24 0v4.31a.62.62 0 0 0 .62.62Zm0 18.14a.62.62 0 0 0-.62.62V32a.62.62 0 0 0 1.24 0v-4.31a.62.62 0 0 0-.62-.62Zm14-9.69h-4.31a.62.62 0 0 0 0 1.24H32a.62.62 0 0 0 0-1.24ZM8.93 18a.62.62 0 0 0-.62-.62H4a.62.62 0 0 0 0 1.24h4.31a.62.62 0 0 0 .62-.62Zm15.92-6.23a.66.66 0 0 0 .45-.18l3-3.05c.58-.56-.32-1.46-.88-.88l-3.05 3a.63.63 0 0 0 .48 1.11ZM10.7 24.41l-3 3.05a.62.62 0 0 0 .88.88l3.05-3a.63.63 0 0 0-.93-.93Zm14.6 0a.63.63 0 0 0-.89.89l3.05 3a.62.62 0 0 0 .88-.88ZM10.7 11.59a.63.63 0 0 0 .89-.89l-3.05-3c-.54-.62-1.46.3-.88.84Z"/>
</svg>

<svg id="b94872a2-9150-4684-bb13-b1d9b03d4787" data-name="Icon" xmlns="http://www.w3.org/2000/svg" viewBox="0 0 36 36">
  <title>Sun icon - Black</title>
<desc>bright, light, rays, burst, circle, space, sky, science and nature</desc>
<metadata><?xpacket begin="﻿" id="W5M0MpCehiHzreSzNTczkc9d"?>
<x:xmpmeta xmlns:x="adobe:ns:meta/" x:xmptk="Adobe XMP Core 8.0-c001 1.000000, 0000/00/00-00:00:00        ">
   <rdf:RDF xmlns:rdf="http://www.w3.org/1999/02/22-rdf-syntax-ns#">
      <rdf:Description rdf:about=""
            xmlns:xmp="http://ns.adobe.com/xap/1.0/"
            xmlns:dc="http://purl.org/dc/elements/1.1/"
            xmlns:cq="http://www.day.com/jcr/cq/1.0"
            xmlns:tiff="http://ns.adobe.com/tiff/1.0/">
         <xmp:rhcc-effective-on>2023-12-08T17:41:22.247Z</xmp:rhcc-effective-on>
         <xmp:rhcc-metadata-complete-moderator>pending</xmp:rhcc-metadata-complete-moderator>
         <xmp:rhcc-translation-id>TRA0b16046d-f1b8-48a3-a758-693a717970a1</xmp:rhcc-translation-id>
         <xmp:brand-content-type>Icon</xmp:brand-content-type>
         <xmp:CreateDate>2023-12-08T17:41:22.247Z</xmp:CreateDate>
         <xmp:rhcc-effective-on-set-on-upload>true</xmp:rhcc-effective-on-set-on-upload>
         <xmp:rhcc-metadata-complete-uploader>pending</xmp:rhcc-metadata-complete-uploader>
         <xmp:rhcc-file-last-modified>2023-12-08T17:42:23.497Z</xmp:rhcc-file-last-modified>
         <xmp:rhcc-audience>rhcc-audience:internal</xmp:rhcc-audience>
         <xmp:rhcc-rights-restricted>no</xmp:rhcc-rights-restricted>
         <xmp:brand-content-subtype>Icon</xmp:brand-content-subtype>
         <xmp:rhcc-derivative-id>DER0b16046d-f1b8-48a3-a758-693a717970a1</xmp:rhcc-derivative-id>
         <xmp:brand-logo-color>Black</xmp:brand-logo-color>
         <xmp:rhcc-notify-portal-subscribers-on-change>yes</xmp:rhcc-notify-portal-subscribers-on-change>
         <dc:format>image/svg+xml</dc:format>
         <dc:modified>2024-02-09T20:26:40.962Z</dc:modified>
         <dc:title>
            <rdf:Alt>
               <rdf:li xml:lang="x-default">Sun icon - Black</rdf:li>
            </rdf:Alt>
         </dc:title>
         <dc:description>
            <rdf:Alt>
               <rdf:li xml:lang="x-default">bright, light, rays, burst, circle, space, sky, science and nature</rdf:li>
            </rdf:Alt>
         </dc:description>
         <cq:lastReplicationAction_scene7>Activate</cq:lastReplicationAction_scene7>
         <cq:lastReplicationAction_publish>Activate</cq:lastReplicationAction_publish>
         <cq:lastReplicated_publish>2024-02-09T22:11:52.129Z</cq:lastReplicated_publish>
         <cq:lastReplicatedBy>workflow-process-service</cq:lastReplicatedBy>
         <cq:lastReplicationAction>Activate</cq:lastReplicationAction>
         <cq:lastReplicatedBy_publish>workflow-process-service</cq:lastReplicatedBy_publish>
         <cq:isDelivered>true</cq:isDelivered>
         <cq:lastReplicated>2024-02-09T22:11:52.129Z</cq:lastReplicated>
         <cq:lastReplicatedBy_scene7>workflow-process-service</cq:lastReplicatedBy_scene7>
         <cq:lastReplicated_scene7>2024-02-09T22:11:52.129Z</cq:lastReplicated_scene7>
         <tiff:ImageLength>36</tiff:ImageLength>
         <tiff:ImageWidth>36</tiff:ImageWidth>
      </rdf:Description>
   </rdf:RDF>
</x:xmpmeta>
                                                                                                    
                                                                                                    
                                                                                                    
                                                                                                    
                                                                                                    
                                                                                                    
                                                                                                    
                                                                                                    
                                                                                                    
                                                                                                    
                                 
<?xpacket end="w"?></metadata>
<g>
    <path d="M18,11.38A6.63,6.63,0,0,0,11.38,18c.31,8.77,12.94,8.77,13.25,0A6.64,6.64,0,0,0,18,11.38Zm0,12c-7.1-.23-7.1-10.53,0-10.76C25.1,12.85,25.1,23.15,18,23.38Z"/>
    <path d="M18,8.93a.62.62,0,0,0,.62-.62V4a.62.62,0,0,0-1.24,0V8.31A.62.62,0,0,0,18,8.93Z"/>
    <path d="M18,27.07a.62.62,0,0,0-.62.62V32a.62.62,0,0,0,1.24,0V27.69A.62.62,0,0,0,18,27.07Z"/>
    <path d="M32,17.38H27.69a.62.62,0,0,0,0,1.24H32A.62.62,0,0,0,32,17.38Z"/>
    <path d="M8.93,18a.62.62,0,0,0-.62-.62H4a.62.62,0,0,0,0,1.24H8.31A.62.62,0,0,0,8.93,18Z"/>
    <path d="M24.85,11.77a.66.66,0,0,0,.45-.18l3-3.05c.58-.56-.32-1.46-.88-.88l-3.05,3A.63.63,0,0,0,24.85,11.77Z"/>
    <path d="M10.7,24.41l-3,3.05a.62.62,0,0,0,.88.88l3.05-3A.63.63,0,0,0,10.7,24.41Z"/>
    <path d="M25.3,24.41a.63.63,0,0,0-.89.89l3.05,3a.62.62,0,0,0,.88-.88Z"/>
    <path d="M10.7,11.59a.63.63,0,0,0,.89-.89l-3.05-3C8,7.08,7.08,8,7.66,8.54Z"/>
  </g>
</svg>
